svg/arrow/move_fill.svg

<?xml version="1.0" encoding="UTF-8"?>
<svg width="24px" height="24px" viewBox="0 0 24 24" version="1.1" xmlns="http://www.w3.org/2000/svg" xmlns:xlink="http://www.w3.org/1999/xlink">
    <title>move_fill</title>
    <g id="页面-1" stroke="none" stroke-width="1" fill="none" fill-rule="evenodd">
        <g id="Arrow" transform="translate(-720.000000, -50.000000)" fill-rule="nonzero">
            <g id="move_fill" transform="translate(720.000000, 50.000000)">
                 <path d="M24,0 L24,24 L0,24 L0,0 L24,0 Z M12.5934901,23.257841 L12.5819402,23.2595131 L12.5108777,23.2950439 L12.4918791,23.2987469 L12.4918791,23.2987469 L12.4767152,23.2950439 L12.4056548,23.2595131 C12.3958229,23.2563662 12.3870493,23.2590235 12.3821421,23.2649074 L12.3780323,23.275831 L12.360941,23.7031097 L12.3658947,23.7234994 L12.3769048,23.7357139 L12.4804777,23.8096931 L12.4953491,23.8136134 L12.4953491,23.8136134 L12.5071152,23.8096931 L12.6106902,23.7357139 L12.6232938,23.7196733 L12.6232938,23.7196733 L12.6266527,23.7031097 L12.609561,23.275831 C12.6075724,23.2657013 12.6010112,23.2592993 12.5934901,23.257841 L12.5934901,23.257841 Z M12.8583906,23.1452862 L12.8445485,23.1473072 L12.6598443,23.2396597 L12.6498822,23.2499052 L12.6498822,23.2499052 L12.6471943,23.2611114 L12.6650943,23.6906389 L12.6699349,23.7034178 L12.6699349,23.7034178 L12.678386,23.7104931 L12.8793402,23.8032389 C12.8914285,23.8068999 12.9022333,23.8029875 12.9078286,23.7952264 L12.9118235,23.7811639 L12.8776777,23.1665331 C12.8752882,23.1545897 12.8674102,23.1470016 12.8583906,23.1452862 L12.8583906,23.1452862 Z M12.1430473,23.1473072 C12.1332178,23.1423925 12.1221763,23.1452606 12.1156365,23.1525954 L12.1099173,23.1665331 L12.0757714,23.7811639 C12.0751323,23.7926639 12.0828099,23.8018602 12.0926481,23.8045676 L12.108256,23.8032389 L12.3092106,23.7104931 L12.3186497,23.7024347 L12.3186497,23.7024347 L12.3225043,23.6906389 L12.340401,23.2611114 L12.337245,23.2485176 L12.337245,23.2485176 L12.3277531,23.2396597 L12.1430473,23.1473072 Z" id="MingCute" fill-rule="nonzero"></path>
                <path d="M8.11081,7.06056 C7.52502,6.47477 7.52502,5.52502 8.11081,4.93924 L10.8685,2.18152 C11.4934,1.55668 12.5064,1.55668 13.1313,2.18152 L15.889,4.93924 C16.4748,5.52502 16.4748,6.47477 15.889,7.06056 C15.3032,7.64634 14.3534,7.64634 13.7677,7.06056 L13.4999,6.79279 L13.4999,10.4999 L17.2069,10.4999 L16.9392,10.2322 C16.3535,9.6464 16.3535,8.69665 16.9392,8.11087 C17.525,7.52508 18.4748,7.52508 19.0606,8.11087 L21.8183,10.8686 C22.4431,11.4934 22.4431,12.5065 21.8183,13.1313 L19.0606,15.889 C18.4748,16.4748 17.525,16.4748 16.9392,15.889 C16.3534,15.3033 16.3534,14.3535 16.9392,13.7677 L17.2071,13.4999 L13.4999,13.4999 L13.4999,17.207 L13.7677,16.9392 C14.3534,16.3534 15.3032,16.3535 15.889,16.9392 C16.4748,17.525 16.4748,18.4748 15.889,19.0606 L13.1313,21.8183 C12.5064,22.4431 11.4934,22.4431 10.8685,21.8183 L8.11081,19.0606 C7.52502,18.4748 7.52502,17.525 8.11081,16.9392 C8.69659,16.3535 9.64634,16.3535 10.2321,16.9392 L10.4999,17.207 L10.4999,13.4999 L6.79273,13.4999 L7.06056,13.7677 C7.64634,14.3535 7.64634,15.3033 7.06056,15.889 C6.47477,16.4748 5.52502,16.4748 4.93924,15.889 L2.18152,13.1313 C1.55668,12.5065 1.55668,11.4934 2.18152,10.8686 L4.93924,8.11087 C5.52502,7.52508 6.47477,7.52508 7.06056,8.11087 C7.64634,8.69665 7.64634,9.6464 7.06056,10.2322 L6.79285,10.4999 L10.4999,10.4999 L10.4999,6.79279 L10.2321,7.06056 C9.64634,7.64634 8.69659,7.64634 8.11081,7.06056 Z" id="路径" fill="#09244B"></path>
            </g>
        </g>
    </g>
</svg>

<svg xmlns="http://www.w3.org/2000/svg" width="24" height="24"><g fill="none" fill-rule="nonzero"><path d="M24 0v24H0V0h24ZM12.593 23.258l-.011.002-.071.035-.02.004-.014-.004-.071-.035c-.01-.004-.019-.001-.024.005l-.004.01-.017.428.005.02.01.013.104.074.015.004.012-.004.104-.074.012-.016.004-.017-.017-.427c-.002-.01-.009-.017-.017-.018Zm.265-.113-.013.002-.185.093-.01.01-.003.011.018.43.005.012.008.007.201.093c.012.004.023 0 .029-.008l.004-.014-.034-.614c-.003-.012-.01-.02-.02-.022Zm-.715.002a.023.023 0 0 0-.027.006l-.006.014-.034.614c0 .012.007.02.017.024l.015-.002.201-.093.01-.008.004-.011.017-.43-.003-.012-.01-.01-.184-.092Z"/><path fill="#09244B" d="M8.11 7.06a1.5 1.5 0 0 1 0-2.12l2.758-2.758a1.6 1.6 0 0 1 2.263 0l2.758 2.757a1.5 1.5 0 1 1-2.121 2.122l-.268-.268V10.5h3.707l-.268-.268a1.5 1.5 0 0 1 2.122-2.121l2.757 2.758a1.6 1.6 0 0 1 0 2.262l-2.757 2.758a1.5 1.5 0 0 1-2.122-2.121l.268-.268H13.5v3.707l.268-.268a1.5 1.5 0 0 1 2.121 2.122l-2.758 2.757a1.6 1.6 0 0 1-2.263 0l-2.757-2.757a1.5 1.5 0 0 1 2.121-2.122l.268.268V13.5H6.793l.268.268a1.5 1.5 0 1 1-2.122 2.121l-2.757-2.758a1.6 1.6 0 0 1 0-2.262L4.939 8.11a1.5 1.5 0 1 1 2.122 2.121l-.268.268H10.5V6.793l-.268.268a1.5 1.5 0 0 1-2.121 0Z"/></g></svg>
